web/public/assets/revenue-growth.svg

<svg fill="none" height="44" viewBox="0 0 44 44" width="44" xmlns="http://www.w3.org/2000/svg"><rect fill="#f1f1f1" height="44" rx="22" width="44"/><path d="m21.3266 17.7961h2.8905c.9571-.0021.9597-1.4633-.0001-1.4661h-1.2463v-.6644c0-.4052-.3286-.7331-.7334-.7331-.4049 0-.7331.3279-.7331.7331v.6644c-3.106-.1196-3.2828 4.4316-.1775 4.5374h1.3551c1.0488.0181 1.0592 1.5756 0 1.5936h-2.8904c-.9616.0142-.9647 1.4508 0 1.4661h1.7128v.6644c.0034.956 1.4624.9608 1.4665-.0001v-.6934c2.7809-.4006 2.5215-4.4415-.2889-4.4968h-1.3552c-1.0534-.018-1.0544-1.5867 0-1.6051z" fill="#004bff"/><path d="m16.3812 27.2496c.6323.0202.9863-.8224.5129-1.2571-4.6639-4.4897-1.3673-12.5682 5.1103-12.5261 4.0282 0 7.3049 3.2766 7.3049 7.305.0184.63-.3191 1.6118.5771 1.7461.9664.0769.8711-1.0772.889-1.7461.0001-4.8366-3.9345-8.7712-8.7712-8.7712-7.7777-.0497-11.7355 9.6496-6.136 15.0404.1429.1396.3279.209.513.209z" fill="#004bff"/><path d="m32.7634 24.2662c-.0193-.3604-.3391-.5987-.6798-.6447 0-.0001-5.2225-.2514-5.2225-.2514-.9549-.0254-1.0375 1.3996-.0702 1.4648 0 0 3.2488.1564 3.2488.1564l-6.7266 5.2179-2.772-3.7156c-.2328-.3267-.7352-.3924-1.0427-.1367 0 0-7.9916 6.3279-7.9916 6.3279-.7481.5968.1559 1.7427.9099 1.1497 0 0 7.4003-5.8597 7.4003-5.8597l2.7673 3.7098c.1177.1583.2942.2621.4889.2885.1933.0251.3924-.0272.5484-.1474l7.3218-5.6796-.6367 3.1918c-.1836.9361 1.2425 1.2302 1.4376.2863-.0001.0001 1.023-5.1272 1.023-5.1272.0067-.0762.0088-.1533-.0039-.2308z" fill="#1a1a1a"/></svg>

<svg width="44" height="44" viewBox="0 0 44 44" fill="none" xmlns="http://www.w3.org/2000/svg">
<rect width="44" height="44" rx="22" fill="#F1F1F1"/>
<path d="M21.3266 17.7961H24.2171C25.1742 17.794 25.1768 16.3328 24.217 16.33L22.9707 16.33V15.6656C22.9707 15.2604 22.6421 14.9325 22.2373 14.9325C21.8324 14.9325 21.5042 15.2604 21.5042 15.6656V16.33C18.3982 16.2104 18.2214 20.7616 21.3267 20.8674L22.6818 20.8674C23.7306 20.8855 23.741 22.443 22.6818 22.461H19.7914C18.8298 22.4752 18.8267 23.9118 19.7914 23.9271H21.5042V24.5915C21.5076 25.5475 22.9666 25.5523 22.9707 24.5914L22.9707 23.898C25.7516 23.4974 25.4922 19.4565 22.6818 19.4012H21.3266C20.2732 19.3832 20.2722 17.8145 21.3266 17.7961Z" fill="#004BFF"/>
<path d="M16.3812 27.2496C17.0135 27.2698 17.3675 26.4272 16.8941 25.9925C12.2302 21.5028 15.5268 13.4243 22.0044 13.4664C26.0326 13.4664 29.3093 16.743 29.3093 20.7714C29.3277 21.4014 28.9902 22.3832 29.8864 22.5175C30.8528 22.5944 30.7575 21.4403 30.7754 20.7714C30.7755 15.9348 26.8409 12.0002 22.0042 12.0002C14.2265 11.9505 10.2687 21.6498 15.8682 27.0406C16.0111 27.1802 16.1961 27.2496 16.3812 27.2496Z" fill="#004BFF"/>
<path d="M32.7634 24.2662C32.7441 23.9058 32.4243 23.6675 32.0836 23.6215C32.0836 23.6214 26.8611 23.3701 26.8611 23.3701C25.9062 23.3447 25.8236 24.7697 26.7909 24.8349C26.7909 24.8349 30.0397 24.9913 30.0397 24.9913L23.3131 30.2092L20.5411 26.4936C20.3083 26.1669 19.8059 26.1012 19.4984 26.3569C19.4984 26.3569 11.5068 32.6848 11.5068 32.6848C10.7587 33.2816 11.6627 34.4275 12.4167 33.8345C12.4167 33.8345 19.817 27.9748 19.817 27.9748L22.5843 31.6846C22.702 31.8429 22.8785 31.9467 23.0732 31.9731C23.2665 31.9982 23.4656 31.9459 23.6216 31.8257L30.9434 26.1461L30.3067 29.3379C30.1231 30.274 31.5492 30.5681 31.7443 29.6242C31.7442 29.6243 32.7673 24.497 32.7673 24.497C32.774 24.4208 32.7761 24.3437 32.7634 24.2662Z" fill="#1A1A1A"/>
</svg>
